pldoc/static/images/icons/envelope.svg

<?xml version="1.0" encoding="utf-8"?>
<!-- Generated by IcoMoon.io -->
<!DOCTYPE svg PUBLIC "-//W3C//DTD SVG 1.1//EN" "http://www.w3.org/Graphics/SVG/1.1/DTD/svg11.dtd">
<svg version="1.1" xmlns="http://www.w3.org/2000/svg" xmlns:xlink="http://www.w3.org/1999/xlink" width="14" height="14" viewBox="0 0 14 14">
<path fill="#444444" d="M14 5.547v6.203q0 0.516-0.367 0.883t-0.883 0.367h-11.5q-0.516 0-0.883-0.367t-0.367-0.883v-6.203q0.344 0.383 0.789 0.68 2.828 1.922 3.883 2.695 0.445 0.328 0.723 0.512t0.738 0.375 0.859 0.191h0.016q0.398 0 0.859-0.191t0.738-0.375 0.723-0.512q1.328-0.961 3.891-2.695 0.445-0.305 0.781-0.68zM14 3.25q0 0.617-0.383 1.18t-0.953 0.961q-2.937 2.039-3.656 2.539-0.078 0.055-0.332 0.238t-0.422 0.297-0.406 0.254-0.449 0.211-0.391 0.070h-0.016q-0.18 0-0.391-0.070t-0.449-0.211-0.406-0.254-0.422-0.297-0.332-0.238q-0.711-0.5-2.047-1.426t-1.602-1.113q-0.484-0.328-0.914-0.902t-0.43-1.066q0-0.609 0.324-1.016t0.926-0.406h11.5q0.508 0 0.879 0.367t0.371 0.883z"></path>
</svg>

<svg xmlns="http://www.w3.org/2000/svg" width="14" height="14" viewBox="0 0 14 14"><path fill="#444" d="M14 5.547v6.203q0 .516-.367.883T12.75 13H1.25q-.516 0-.883-.367T0 11.75V5.547q.344.383.79.68Q3.616 8.15 4.67 8.922q.445.328.723.512t.738.375.86.19h.015q.398 0 .86-.19t.737-.376.723-.512q1.328-.96 3.89-2.695.446-.305.782-.68zm0-2.297q0 .617-.383 1.18t-.953.96L9.008 7.93q-.078.055-.332.238t-.422.297-.406.254-.45.21-.39.07h-.016q-.18 0-.39-.07t-.45-.21-.406-.255-.422-.297-.332-.238q-.71-.5-2.047-1.426T1.343 5.39Q.86 5.064.43 4.49T0 3.422q0-.61.323-1.016T1.25 2h11.5q.507 0 .878.368t.37.883z"/></svg>
